icons/trailer.svg

<svg width="512" height="512" viewBox="0 0 512 512" fill="none" xmlns="http://www.w3.org/2000/svg">
<path d="M434.398 215.39L164.194 217.5C200.994 203.1 238.795 188.59 276.996 174C325.697 155.3 374.398 136.7 420.199 118.59C423.897 116.96 426.805 113.938 428.29 110.18C429.77 106.4 429.7 102.2 428.098 98.4898L426.199 93.9998C417.679 70.868 407.588 48.3455 395.997 26.5898C394.071 23.9613 391.331 22.042 388.202 21.1298C385.07 20.2298 381.728 20.3898 378.698 21.5898C371.498 24.3898 314.296 46.5998 248.795 71.7898C173.594 100.89 87.5931 133.99 54.2931 147C50.7227 148.395 47.8385 151.129 46.2551 154.62C44.6685 158.113 44.5025 162.086 45.7921 165.7C51.0921 180.39 54.4921 189.8 56.9921 196.29C50.0484 202.717 45.1162 211.018 42.7921 220.19L41.9921 223.89L41.6921 225.29C41.4995 226.346 41.3991 227.416 41.3921 228.49V236.1C41.4801 237.55 41.7151 238.99 42.0921 240.4C43.7098 249.521 47.8297 258.013 53.9921 264.93C60.1534 271.852 68.1159 276.927 76.9921 279.59C77.1921 317.49 77.6921 434.8 77.6921 457.5C77.6992 461.396 79.2507 465.13 82.0065 467.883C84.7622 470.637 88.4973 472.186 92.3931 472.19C144.693 472.19 436.798 473.5 436.798 473.5C440.663 473.5 444.375 471.97 447.127 469.26C449.878 466.544 451.448 462.855 451.498 458.99C451.498 457.3 453.798 290.8 453.798 234.3C453.598 217.59 438.298 215.39 434.398 215.39ZM278.596 284.19L302.496 245.69L356.097 245.29L331.996 284.19H278.596ZM267.795 245.99L244.095 284.19H191.194L214.594 246.3L267.795 245.99ZM231.294 160C214.695 166.39 198.395 172.69 182.094 179L188.094 126.69L237.295 107.7L231.294 160ZM266.495 146.4L262.095 148.09L268.095 95.6898L318.596 76.2898L312.496 128.8L266.495 146.4ZM395.598 96.5998C378.596 103.3 361.097 110 343.597 116.79L349.698 64.2898L377.297 53.6998C382.597 65.4898 390.497 84.1898 395.598 96.5998ZM83.4931 183.19L78.2931 169.1C97.6931 161.49 125.693 150.7 157.093 138.59L151.093 191C144.693 193.49 138.194 196 131.893 198.5C127.473 193.276 121.931 189.116 115.68 186.33C109.433 183.534 102.634 182.187 95.7931 182.39C94.9931 182.39 93.8931 182.59 92.9931 182.59C90.3511 182.56 87.7101 182.72 85.0931 183.1C84.5571 183.09 84.0238 183.12 83.4931 183.19ZM70.5931 234.39L71.1931 227.4C72.6875 222.305 75.9944 217.934 80.4901 215.11C84.9882 212.296 90.359 211.223 95.5931 212.09C100.81 212.78 105.571 215.42 108.912 219.5C112.254 223.561 113.927 228.741 113.593 233.99C113.094 238.587 111.008 242.866 107.693 246.09C107.216 246.584 106.716 247.055 106.193 247.5C102.512 250.618 97.9106 252.444 93.0931 252.7C87.8945 253.13 82.7242 251.588 78.6111 248.38C74.4973 245.174 71.7418 240.536 70.8931 235.39C70.8331 235.05 70.7331 234.72 70.5931 234.39ZM106.193 280.39C107.193 280.1 107.993 279.5 108.993 279.1C112.57 277.903 115.994 276.288 119.193 274.29L119.394 274.2C123.385 271.664 127.017 268.603 130.193 265.1C130.493 264.79 130.793 264.59 130.993 264.39C131.193 264.19 131.693 263.39 132.094 262.99C132.893 261.99 133.593 260.99 134.294 260C137.382 256.081 139.814 251.688 141.494 246.99L179.894 246.7L156.594 284.3H106.193V280.39ZM422.199 444.1C367.397 443.9 173.493 442.99 106.993 442.9C106.893 413.39 106.693 354.89 106.493 313.59H423.897C423.297 363.19 422.599 418.49 422.199 444.1ZM423.998 284.19H366.397L390.597 244.99L424.098 244.69C424.197 255.8 423.998 269.39 423.998 284.19Z" fill="white"/>
</svg>

<svg xmlns="http://www.w3.org/2000/svg" viewBox="0 0 512 512"><path d="m434.398 215.39-270.204 2.11c36.8-14.4 74.601-28.91 112.802-43.5 48.701-18.7 97.402-37.3 143.203-55.41a15.36 15.36 0 0 0 8.091-8.41c1.48-3.78 1.41-7.98-.192-11.69L426.199 94a541 541 0 0 0-30.202-67.41 14.8 14.8 0 0 0-7.795-5.46c-3.132-.9-6.474-.74-9.504.46-7.2 2.8-64.402 25.01-129.903 50.2-75.201 29.1-161.202 62.2-194.502 75.21a14.7 14.7 0 0 0-8.038 7.62 14.78 14.78 0 0 0-.463 11.08c5.3 14.69 8.7 24.1 11.2 30.59a48.95 48.95 0 0 0-14.2 23.9l-.8 3.7-.3 1.4a18.5 18.5 0 0 0-.3 3.2v7.61c.088 1.45.323 2.89.7 4.3a50 50 0 0 0 11.9 24.53 50.04 50.04 0 0 0 23 14.66c.2 37.9.7 155.21.7 177.91a14.717 14.717 0 0 0 14.701 14.69c52.3 0 344.405 1.31 344.405 1.31 3.865 0 7.577-1.53 10.329-4.24a14.7 14.7 0 0 0 4.371-10.27c0-1.69 2.3-168.19 2.3-224.69-.2-16.71-15.5-18.91-19.4-18.91m-155.802 68.8 23.9-38.5 53.601-.4-24.101 38.9zm-10.801-38.2-23.7 38.2h-52.901l23.4-37.89zM231.294 160c-16.599 6.39-32.899 12.69-49.2 19l6-52.31 49.201-18.99zm35.201-13.6-4.4 1.69 6-52.4 50.501-19.4-6.1 52.51zm129.103-49.8c-17.002 6.7-34.501 13.4-52.001 20.19l6.101-52.5 27.599-10.59c5.3 11.79 13.2 30.49 18.301 42.9M83.493 183.19l-5.2-14.09c19.4-7.61 47.4-18.4 78.8-30.51l-6 52.41c-6.4 2.49-12.899 5-19.2 7.5a45.5 45.5 0 0 0-16.213-12.17 45.4 45.4 0 0 0-19.887-3.94c-.8 0-1.9.2-2.8.2-2.642-.03-5.283.13-7.9.51q-.804-.015-1.6.09m-12.9 51.2.6-6.99a21.74 21.74 0 0 1 9.297-12.29 21.77 21.77 0 0 1 15.103-3.02c5.217.69 9.978 3.33 13.319 7.41a20.73 20.73 0 0 1 4.681 14.49 19.87 19.87 0 0 1-5.9 12.1 21 21 0 0 1-1.5 1.41 22.08 22.08 0 0 1-13.1 5.2 20.76 20.76 0 0 1-14.482-4.32 20.75 20.75 0 0 1-7.718-12.99c-.06-.34-.16-.67-.3-1m35.6 46c1-.29 1.8-.89 2.8-1.29a48 48 0 0 0 10.2-4.81l.201-.09a52.8 52.8 0 0 0 10.799-9.1c.3-.31.6-.51.8-.71s.7-1 1.101-1.4c.799-1 1.499-2 2.2-2.99a46.1 46.1 0 0 0 7.2-13.01l38.4-.29-23.3 37.6h-50.401zM422.199 444.1c-54.802-.2-248.706-1.11-315.206-1.2-.1-29.51-.3-88.01-.5-129.31h317.404c-.6 49.6-1.298 104.9-1.698 130.51m1.799-159.91h-57.601l24.2-39.2 33.501-.3c.099 11.11-.1 24.7-.1 39.5" style="fill:currentcolor" /></svg>
